svg/temperature_fahrenheit.svg

<svg xmlns="http://www.w3.org/2000/svg" viewBox="0 0 24 24"><path d="M11 20V5h9v3h-6v3h5v3h-5v6zM6 3a3 3 0 0 1 3 3 3 3 0 0 1-3 3 3 3 0 0 1-3-3 3 3 0 0 1 3-3m0 2a1 1 0 0 0-1 1 1 1 0 0 0 1 1 1 1 0 0 0 1-1 1 1 0 0 0-1-1"/></svg>

<?xml version="1.0" encoding="UTF-8"?><!DOCTYPE svg PUBLIC "-//W3C//DTD SVG 1.1//EN" "http://www.w3.org/Graphics/SVG/1.1/DTD/svg11.dtd"><svg xmlns="http://www.w3.org/2000/svg" xmlns:xlink="http://www.w3.org/1999/xlink" version="1.1" id="mdi-temperature-fahrenheit" width="24" height="24" viewBox="0 0 24 24"><path d="M11,20V5H20V8H14V11H19V14H14V20H11M6,3A3,3 0 0,1 9,6A3,3 0 0,1 6,9A3,3 0 0,1 3,6A3,3 0 0,1 6,3M6,5A1,1 0 0,0 5,6A1,1 0 0,0 6,7A1,1 0 0,0 7,6A1,1 0 0,0 6,5Z" /></svg>
